X:1016
T:Honble. Miss K. Elphinston's
M:C
L:1/8
Q:1/4=120
I: || ||
Z:Jack Campin * www.campin.me.uk * 2009
K:G
B|G/G/G B>A  B>GG>E | D2 D>E  A2 A>B  |G/G/G B>A  B<GG>E | D2       D>E G3  :|
b|g<g   b>a (g2 g>)d|(e2 e>)g a3  b   |g>g```b>a (g2 g>)e|TdB```````de (g2g)b|
  g<g   b>a  g2 gd  | e2 eg   a3 b/c'/|d'>b``c'>a b>ga>f | e/d/e/f/ gB  G3  |]

